packages/katcn/src/icons/svg/modem-solid.svg

<svg width="24" height="25" viewBox="0 0 24 25" fill="none" xmlns="http://www.w3.org/2000/svg">
<path d="M20.1 14.012H13V6.01202C13 5.41202 12.6 5.01202 12 5.01202C11.4 5.01202 11 5.41202 11 6.01202V14.012H3.9C2.3 14.012 1 15.312 1 17.012V20.412C1 22.012 2.3 23.312 3.9 23.312H20C21.6 23.312 22.9 22.012 22.9 20.412V17.012C23 15.312 21.7 14.012 20.1 14.012Z" fill="black"/>
<path d="M11.1 17.712H5.59998C4.99998 17.712 4.59998 18.112 4.59998 18.712C4.59998 19.312 4.99998 19.712 5.59998 19.712H11.1C11.7 19.712 12.1 19.312 12.1 18.712C12.1 18.112 11.6 17.712 11.1 17.712Z" fill="white"/>
<path d="M8.8 8.91202C9 8.91202 9.3 8.81202 9.5 8.61202C9.9 8.21202 9.9 7.61202 9.6 7.21202C9.3 6.91202 9.1 6.41202 9.1 6.01202C9.1 5.61202 9.3 5.11202 9.5 4.81202C9.9 4.41202 9.8 3.81202 9.4 3.41202C9 3.01202 8.4 3.11202 8 3.51202C7.4 4.21202 7 5.11202 7 6.01202C7 6.91202 7.3 7.81202 8 8.51202C8.3 8.71202 8.5 8.91202 8.8 8.91202Z" fill="black"/>
<path d="M6.09995 10.712C6.29995 10.712 6.59995 10.612 6.79995 10.512C7.19995 10.112 7.29995 9.51202 6.89995 9.11203C6.09995 8.21203 5.69995 7.11202 5.69995 6.01202C5.69995 4.91202 6.09995 3.81203 6.79995 2.91203C7.19995 2.51203 7.09995 1.91203 6.69995 1.51203C6.29995 1.11203 5.69995 1.21203 5.29995 1.61203C4.29995 2.81203 3.69995 4.31202 3.69995 6.01202C3.69995 7.61202 4.29995 9.21203 5.29995 10.412C5.49995 10.612 5.79995 10.712 6.09995 10.712Z" fill="black"/>
<path d="M14.5 8.61203C14.7 8.81203 14.9 8.91203 15.2 8.91203C15.5 8.91203 15.7 8.81203 15.9 8.61203C16.5 7.91203 16.9 7.01203 16.9 6.11203C16.9 5.21203 16.6 4.31203 15.9 3.61203C15.5 3.21203 14.9 3.21203 14.5 3.51203C14.1 3.91203 14.1 4.51203 14.4 4.91203C14.7 5.21203 14.8 5.61203 14.8 6.11203C14.8 6.61203 14.6 7.01203 14.4 7.31203C14.1 7.61203 14.1 8.21203 14.5 8.61203Z" fill="black"/>
<path d="M17.3 10.512C17.5 10.712 17.7 10.712 18 10.712C18.3 10.712 18.6 10.612 18.8 10.412C19.8 9.21203 20.4 7.71202 20.4 6.01202C20.4 4.41202 19.8 2.81203 18.8 1.61203C18.4 1.21203 17.8 1.11203 17.4 1.51203C17 1.91203 16.9 2.51203 17.3 2.91203C18 3.71203 18.4 4.81202 18.4 6.01202C18.4 7.11202 18 8.21203 17.3 9.11203C16.8 9.51202 16.8 10.112 17.3 10.512Z" fill="black"/>
</svg>

<svg xmlns="http://www.w3.org/2000/svg" fill="none" viewBox="0 0 24 25"><path fill="#000" d="M20.1 14.012H13v-8c0-.6-.4-1-1-1s-1 .4-1 1v8H3.9c-1.6 0-2.9 1.3-2.9 3v3.4c0 1.6 1.3 2.9 2.9 2.9H20c1.6 0 2.9-1.3 2.9-2.9v-3.4c.1-1.7-1.2-3-2.8-3"/><path fill="#fff" d="M11.1 17.712H5.6c-.6 0-1 .4-1 1s.4 1 1 1h5.5c.6 0 1-.4 1-1s-.5-1-1-1"/><path fill="#000" d="M8.8 8.912c.2 0 .5-.1.7-.3.4-.4.4-1 .1-1.4-.3-.3-.5-.8-.5-1.2s.2-.9.4-1.2c.4-.4.3-1-.1-1.4s-1-.3-1.4.1c-.6.7-1 1.6-1 2.5s.3 1.8 1 2.5c.3.2.5.4.8.4"/><path fill="#000" d="M6.1 10.712c.2 0 .5-.1.7-.2.4-.4.5-1 .1-1.4-.8-.9-1.2-2-1.2-3.1s.4-2.2 1.1-3.1c.4-.4.3-1-.1-1.4s-1-.3-1.4.1c-1 1.2-1.6 2.7-1.6 4.4 0 1.6.6 3.2 1.6 4.4.2.2.5.3.8.3m8.4-2.1c.2.2.4.3.7.3s.5-.1.7-.3c.6-.7 1-1.6 1-2.5s-.3-1.8-1-2.5c-.4-.4-1-.4-1.4-.1-.4.4-.4 1-.1 1.4.3.3.4.7.4 1.2s-.2.9-.4 1.2c-.3.3-.3.9.1 1.3"/><path fill="#000" d="M17.3 10.512c.2.2.4.2.7.2s.6-.1.8-.3c1-1.2 1.6-2.7 1.6-4.4 0-1.6-.6-3.2-1.6-4.4-.4-.4-1-.5-1.4-.1s-.5 1-.1 1.4c.7.8 1.1 1.9 1.1 3.1 0 1.1-.4 2.2-1.1 3.1-.5.4-.5 1 0 1.4"/></svg>
